X:34
T:Banks of the Ohio
C:Traditional
N:Arranged by Tim O'Brien
R:bluegrass
L:1/8
Q:1/4=120
M:4/4
K:A
[c2A2] [c2A2] [e2c2] | (3"A"[e/c/][e/c/][e/c/](3[e/c/][e/c/][e/c/] (3[e/c/][e/c/][e/c/](3[e/c/][e/c/][e/c/] (3[e/c/][e/c/][e/c/](3[e/c/][e/c/][e/c/] (3[e/c/][e/c/][e/c/](3[e/c/][e/c/][e/c/] | 
[e2c2] [cA][cA] [B2G2] [c2A2] | (3[d/B/][d/B/][d/B/](3[d/B/][d/B/][d/B/] (3[d/B/][d/B/][d/B/](3[d/B/][d/B/][d/B/] (3[d/B/][d/B/][d/B/](3[d/B/][d/B/][d/B/] (3[d/B/][d/B/][d/B/](3[d/B/][d/B/][d/B/] | 
[d2B2] [dB][dB] [d2B2] [e2c2] | (3[f/d/][f/d/][f/d/](3[f/d/][f/d/][f/d/] (3[f/d/][f/d/][f/d/](3[f/d/][f/d/][f/d/] (3[f/d/][f/d/][f/d/](3[f/d/][f/d/][f/d/] (3[f/d/][f/d/][f/d/](3[f/d/][f/d/][f/d/] | 
[f2d2] [ge][ge] [g2e2] [f2d2] | (3"A"[e/c/][e/c/][e/c/](3[e/c/][e/c/][e/c/] (3[e/c/][e/c/][e/c/](3[e/c/][e/c/][e/c/] (3[e/c/][e/c/][e/c/](3[e/c/][e/c/][e/c/] (3[e/c/][e/c/][e/c/](3[e/c/][e/c/][e/c/] | 
[e2c2] [e/c/][e/c/][ec] [e2c2] [f2d2] | (3"A7"[=g/e/][g/e/][g/e/](3[g/e/][g/e/][g/e/] (3[g/e/][g/e/][g/e/](3[g/e/][g/e/][g/e/] (3[g/e/][g/e/][g/e/](3[g/e/][g/e/][g/e/] (3[g/e/][g/e/][g/e/](3[g/e/][g/e/][g/e/] | 
[=g2e2] [ec][ec] [d2B2] [c2A2] | (3"D"[f/d/][f/d/][f/d/](3[f/d/][f/d/][f/d/] (3[f/d/][f/d/][f/d/](3[f/d/][f/d/][f/d/] (3[f/d/][f/d/][f/d/](3[f/d/][f/d/][f/d/] (3[f/d/][f/d/][f/d/](3[f/d/][f/d/][f/d/] | 
[f2d2] [cA][cA] [c2A2] [d2B2] | (3"A"[e/c/][e/c/][e/c/](3[e/c/][e/c/][e/c/] (3[e/c/][e/c/][e/c/](3[e/c/][e/c/][e/c/] (3[e/c/][e/c/][e/c/](3[e/c/][e/c/][e/c/] (3[e/c/][e/c/][e/c/](3[e/c/][e/c/][e/c/] | 
[e2c2] [ec][fd] "E"[e2c2] [d2B2] | (3"A"[c/A/][c/A/][c/A/](3[c/A/][c/A/][c/A/] (3[c/A/][c/A/][c/A/](3[c/A/][c/A/][c/A/] (3[c/A/][c/A/][c/A/](3[c/A/][c/A/][c/A/] (3[c/A/][c/A/][c/A/](3[c/A/][c/A/][c/A/] | 
[c8A8] | 

